dist/img/plus.svg

<svg width="49" height="49" viewBox="0 0 49 49" fill="none" xmlns="http://www.w3.org/2000/svg">
<rect x="0.499878" y="0.5" width="47.9952" height="47.31" rx="23.5" fill="white"/>
<rect x="0.499878" y="0.5" width="47.9952" height="47.31" rx="23.5" stroke="#FFFDF9"/>
<path fill-rule="evenodd" clip-rule="evenodd" d="M25.4974 17.155H23.4974V23.155H17.4974V25.155H23.4974V31.155H25.4974V25.155H31.4974V23.155H25.4974V17.155Z" fill="#222522"/>
</svg>

<svg width="49" height="49" viewBox="0 0 49 49" fill="none" xmlns="http://www.w3.org/2000/svg"><rect x=".5" y=".5" width="47.995" height="47.31" rx="23.5" fill="#fff"/><rect x=".5" y=".5" width="47.995" height="47.31" rx="23.5" stroke="#FFFDF9"/><path fill-rule="evenodd" clip-rule="evenodd" d="M25.497 17.155h-2v6h-6v2h6v6h2v-6h6v-2h-6v-6z" fill="#222522"/></svg>
